X: 297
M: 2/4
L: 1/16
K: G
V: 1
d2g2d2c2 | {c}TB3AB2c2 | d2G2 BAGF | GFGA G2Bc |\
d2g2d2c2 | {c}TB3cd2g2 | {g}f2ed fed^c | d4 D2 :|
|: fg |\
a2d2b2d2 | a2d2g2d2 | c2B2A2G2 | AGFE D2Bc |\
dcBc dcBc | dcBc d2g2 | cBAG BAGF | G4 G,2 :|
V: 2 clef=bass middle=d
g4f2d2 | g4G4 | B4c2d2 | g4G4 |\
g4f2d2 | g4G4 | a4A4 | d4D2 :|
|: d2 |\
f2d2g2d2 | f2d2g4 | e2d2c2e2 | d4D2G2 |\
g4G4 | g4B2g2 | c4d4 | g4G2 :|

